X:1
T:Title
%%score 1 { ( 2 5 ) | ( 3 4 ) }
L:1/8
Q:1/4=110
M:3/4
K:E
V:1 treble nm="Akkordion"
V:2 treble nm="Grand Piano"
V:5 treble 
V:3 bass 
V:4 bass 
V:1
 z6 | z6 | z6 | z6 | B2 c2 B2 | G4 z2 | G2 A2 G2 | E4 E2 | D4 E2 | F4 F2 | F2 E2 F2 | G4 B2 | %12
 B2 c2 B2 | G4 B2 | B2 c2 =d2 | c4 c2 | F2 G2 A2 | B4 E2 | G4 F2 | E4 z2 | z6 | z6 | z6 | z6 | z6 | %25
 z6 | z6 | z6 | z6 | z6 | z6 | z6[Q:1/4=108][Q:1/4=107][Q:1/4=105] | %32
 z6[Q:1/4=104][Q:1/4=102][Q:1/4=100] | z6[Q:1/4=99][Q:1/4=97][Q:1/4=95][Q:1/4=94] | %34
 z6[Q:1/4=92][Q:1/4=91][Q:1/4=89] | z6[Q:1/4=87][Q:1/4=86][Q:1/4=84] |] %36
V:2
 [B,G]2 A2 G2 | F2 C2 E2 | D2 E2 F2 | [G,B,E]4 z2 | G2 A2 G2 | B4 z2 | B2 c2 B2 | G4 z2 | %8
w: Chas.~H.~Gabriel * *||||||||
 z2 D2 G2 | A4 z2 | A2 G2 A2 | B4 z2 | G2 A2 G2 | B4 z2 | G2 A2 B2 | A4 z2 | %16
w: ||||||||
 [CFc]2 [B,EB]2 [A,B,DA]2 | G4 z2 | B4 z2 | [G,B,EG]4 z2 | e4 d>c | B6- | B4 z2 | G4 B2 | c4 c2 | %25
w: |||||||||
 c3 c de | d6- | d4 z2 | e4 d>c | B6- | B4 z2 | A3 F GA | B4 E2 | [EG]4 [DF]2 | E6- | E6 |] %36
w: |||||||||||
V:3
 z2 C2 B,2 | F,,6 | [B,,A,B,]6 | E,,4 z2 | z2 [G,B,E]2 [G,B,E]2 | z2 [G,B,]2 [G,B,]2 | %6
 z2 [A,CE]2 [G,B,E]2 | z2 [G,B,]2 [G,B,E]2 | z2 [F,B,]2 [G,B,E]2 | z2 [A,B,]2 [A,B,D]2 | %10
 z2[K:treble] [G,B,E]2 [A,B,F]2 | z2 [G,B,]2 [G,B,E]2 | z2 [A,CE]2 [G,B,E]2 | z2 [G,B,]2 [G,B,E]2 | %14
 z2 [G,B,E]2 [G,B,=DE]2 | z2 A,2 A,2 | A,,2 G,,2 F,,2 | z2 [G,B,]2 [G,B,E]2 | z2 A,2 A,2 | %19
 E,,4 z2 | G4 B>A | G3[K:bass] [E,G,] [E,A,][E,C] | B,3 G, [A,E][CE] | [B,E]4 [E,G,E]2 | %24
 [A,E]4 [A,E]2 | [F,^A,F]3 [F,A,F] [F,B,F][F,CF] | B,3 B, B,B, | B,4 z2 | G4 B>A | %29
 G3[K:bass] [E,G,] [E,A,][E,C] | [E,B,]3 [E,G,E] [C,G,][C,C] | [F,CF]3 [A,C] [G,B,E][F,B,D] | %32
 [E,G,E]4 [C,^A,]2 | [B,,B,]4 [B,,A,]2 | G,G, A,3 A, | G,6 |] %36
V:4
 E,,6 | x6 | x6 | x6 | E,6 | E,4 z2 | E,,6 | E,,6 | B,,4 z2 | B,,4 z2 | E,4[K:treble] z2 | E,4 z2 | %12
 E,4 z2 | E,4 z2 | E,4 z2 | A,,4 z2 | x6 | E,,6 | B,,6 | x6 | x6 | x3[K:bass] x3 | E,6- | E,4 z2 | %24
 x6 | x6 | B,,6- | B,,4 z2 | x6 | x3[K:bass] x3 | x6 | x6 | x6 | x6 | E,6- | E,6 |] %36
V:5
 x6 | ^A,6 | x6 | x6 | x6 | z2 E2 E2 | x6 | z2 E2 G2 | F4 z2 | z2 D2 A2 | x6 | z2 E2 G2 | x6 | %13
 z2 E2 G2 | x6 | z2 [CE]2 [CEA]2 | x6 | z2 E2 G2 | z2 [B,D]2 [B,DA]2 | x6 | x6 | z2 z E FA | %22
 G3 E FA | x6 | x6 | x6 | F3 F FF | A4 z2 | x6 | z2 z E FA | G3 B [^Ec][EG] | x6 | x6 | x6 | %34
 z B, C3 C | B,6 |] %36

